X:341
T:Paddy Fahy's
T:Paddy Fahey's
R:jig
C:Paddy Fahy
S:Kevin Finucane
H:Also played in D, #84
Z:id:hn-jig-341
M:6/8
K:C
~c3 dcB|cGE CEG|~F3 DEF|GAB ced|~c3 dcB|cGE CEG|~F3 DGF|ECC C3:|
|:~c3 ~g3|cg^f gec|~A3 fef|Adf afd|~c3 ~g3|cg^f g2a|gec fdB|cGE C3:|

